X:1
T:Title
%%score { ( 1 4 ) | ( 2 3 5 ) }
L:1/8
M:3/4
K:Db
V:1 treble nm="Grand Piano"
V:4 treble 
V:2 bass 
V:3 bass 
V:5 bass 
V:1
 z2 z2[Q:1/4=80] [DF]>[EG] | [FA]3 [Fd] [Ac]>[CGB] | [DFA]4 [A,DF]>[=A,EF] | %3
 [B,DA]3 [B,DG][K:bass] [G,D]>[G,DE] |[M:2/4][K:treble] [A,DF]4 |[M:1/4] [A,DF]>[A,EG] | %6
[M:3/4] [DFA]3 [Fd] [Ac]>[GB] | [FA]4 [Fd]>[Fd] | c3 E F>=G | [CA]6 | [EB]>[FB] [Gc]3 [GB] | %11
 [GB]>[FA] .[Fc]2 [DFA]>[DFA] | [CEA]3 [A,EG] [A,DF][EG] |[M:2/4] F2- [FA]2 |[M:1/4] [B,GA]>[CGA] | %15
[M:3/4] [Fd]3 [DFd] [DGc]>[DGB] |[M:7/8] F2- [Fd]3 A>B | %17
[M:27/32] A/4-A/4-A/4-A/4-A/4-A/4-A/4-A/4-A/-<A/D/-<D/ z/4 z/4 z/4 z/4 z/4 z/4 z/[K:bass] [G,CE]3/4 | %18
[M:2/4] [F,D]4 |[M:1/4][K:treble] (3:2:2[A,DF]2 [A,EG] |[M:3/4] z2 z [DGB]- [DGB]/4 z/4 z/ z | %21
 z2 z2 z z/ [EF=A]/- | [EFA]3/4 z/4 z z [DFc]- [DFc]/4 z/4 z/ z |[M:2/4] [DFB]4 | %24
[M:1/4] (3:2:2A2 A |[M:3/4] (7:8:7d3/4-d3/2-d3/8F3/4E-E/8D3/4 | (3:2:2B6 B3 | %27
 (3:2:4B3 A3/2D3/2 [A,DF]3[K:bass] |[M:2/4] [F,D]4 |] %29
V:2
 z2 z2 [D,A,]>[D,A,] | [D,D]3 [D,A,] [D,B,]>D, | D,4 D,>C, | B,,3 B,, =A,,>_A,, |[M:2/4] D,4 | %5
[M:1/4] D,>D, |[M:3/4] D,3 [D,A,] [D,B,]>[D,C] | [D,D]4 [D,A,]>[B,,A,] | %8
 [E,A,E]3 [E,C] [E,_C=D]>[E,B,_D] | [A,,A,]6 | [A,,A,]>[A,,A,] [A,,A,]3 [A,,A,] | %11
 [D,A,]>[D,A,] z G D,>D, | A,,3 A,, A,,A, |[M:2/4] z2 D2 |[M:1/4] D,>D, |[M:3/4] [D,A,]3 D, G,>G, | %16
[M:7/8] z2 A,3 [F,D]>[G,D] | %17
[M:27/32] [F,D]/4-[F,D]/4-[F,D]/4-[F,D]/4-[F,D]/4-[F,D]/4-[F,D]/4-[F,D]/4-[F,D]/-<[F,D]/B,,/-<B,,/A,,/4-A,,/4-A,,/4-A,,/4-A,,/-<A,,/A,,3/4 | %18
[M:2/4] D,4 |[M:1/4] (3:2:2D,2 D, |[M:3/4] D,3- D,/4 z/4 z/ (3:2:2D,2 D, | (3:2:2D,6 D,3 | %22
 B,,3- B,,/4 z/4 z/ (3:2:2B,,2 B,, |[M:2/4] B,,4 |[M:1/4] (3:2:2[A,CF]2 [G,CE] | %25
[M:3/4] (7:8:7[F,A,D]3/4-[F,A,D]3/2-[F,A,D]3/8[D,A,D]3/4[E,A,C]-[E,A,C]/8[F,A,]3/4 | z6 | %27
 F2- F3/4 z/4 z z2 |[M:2/4] D,4 |] %29
V:3
 x6 | x6 | x6 | x6 |[M:2/4] x4 |[M:1/4] x2 |[M:3/4] x6 | x6 | x6 | x6 | x6 | z2 [D,A,]2 z2 | x6 | %13
[M:2/4] D,4 |[M:1/4] x2 |[M:3/4] x6 |[M:7/8] D,-D,- D,3 z2 |[M:27/32] x27/4 |[M:2/4] x4 | %19
[M:1/4] x2 |[M:3/4] z2 z D,- D,/4 z/4 z/ z | z2 z2 z z/ C,/- | C,3/4 z/4 z z B,,- B,,/4 z/4 z/ z | %23
[M:2/4] x4 |[M:1/4] x2 |[M:3/4] x6 | z2 z2 z z/ [=G,D_F]/- | %27
 [G,DF]3/4 z/4 z z B,,- B,,/4 z/4 z/ z |[M:2/4] x4 |] %29
V:4
 x6 | x6 | x6 | x4[K:bass] x2 |[M:2/4][K:treble] x4 |[M:1/4] x2 |[M:3/4] x6 | x6 | x6 | x6 | x6 | %11
 x6 | x6 |[M:2/4] [A,B]2 z2 |[M:1/4] x2 |[M:3/4] x6 |[M:7/8] [DA]2 z z z z2 | %17
[M:27/32] z/4 z/4 z/4 z/4 z/4 z/4 z/4 z/4 z/4 z/4 z/4 z/4 z/4 z/4 z/ [A,DF]/4-[A,DF]/4-[A,DF]/4-[A,DF]/4-[A,DF]/4-[A,DF]/4-[A,DF]/-<[A,DF]/[K:bass] z/4 | %18
[M:2/4] x4 |[M:1/4][K:treble] x2 |[M:3/4] [DFA]3- [DFA]/4 z/4 z/ (3:2:2[DFA]2 [A,DF] | %21
 (3:2:2[DFA]6 [DFA]3 | [DFB]3- [DFB]/4 z/4 z/ (3:2:2[DFB]2 [B,DF] |[M:2/4] x4 |[M:1/4] x2 | %25
[M:3/4] x6 | z2 z2 z z/ B/- | B3/4 z/4 z z2 z z/[K:bass] [G,CE]/- |[M:2/4] [G,CE]3/4 z/4 z z2 |] %29
V:5
 x6 | x6 | x6 | x6 |[M:2/4] x4 |[M:1/4] x2 |[M:3/4] x6 | x6 | x6 | x6 | x6 | x6 | x6 |[M:2/4] x4 | %14
[M:1/4] x2 |[M:3/4] x6 |[M:7/8] x7 |[M:27/32] x27/4 |[M:2/4] x4 |[M:1/4] x2 |[M:3/4] x6 | x6 | x6 | %23
[M:2/4] x4 |[M:1/4] x2 |[M:3/4] x6 | (3:2:2[G,D]6 [G,DE]3 | [A,D]3- [A,D]/4 z/4 z/ (3:2:2A,,2 A,, | %28
[M:2/4] x4 |] %29

